svgs/sharp-light/starfighter.svg

<svg xmlns="http://www.w3.org/2000/svg" viewBox="0 0 640 512"><!--! Font Awesome Pro 6.4.0 by @fontawesome - https://fontawesome.com License - https://fontawesome.com/license (Commercial License) Copyright 2023 Fonticons, Inc. --><path d="M273.8 0l-1.7 14.1-32 264-.1 1v1V464v16h16H384h16V464 280v-1l-.1-1-32-264L366.2 0H352 288 273.8zm28.4 32h35.6L368 281V448H272V281L302.2 32zM64 96V80H32V96v32H16 0v32H16 32V448v16H64V448 428.7l64 26.7V464v16h16 48v16 16h32V496 464 448H208 160V288h48 16V256H208 144 128v16 48H64V160H80 96V128H80 64V96zm0 298V352h64v68.7L64 394zM608 96V80H576V96v32H560 544v32h16 16V320H512V272 256H496 432 416v32h16 48V448H432 416v16 32 16h32V496 480h48 16V464v-8.7l64-26.7V448v16h32V448 160h16 16V128H624 608V96zM512 352h64v42l-64 26.7V352zM320 224c-8.8 0-16 7.2-16 16v80h32V240c0-8.8-7.2-16-16-16z"/></svg>

<svg xmlns="http://www.w3.org/2000/svg" viewBox="0 0 640 512"><!--! Font Awesome Pro 6.6.0 by @fontawesome - https://fontawesome.com License - https://fontawesome.com/license (Commercial License) Copyright 2024 Fonticons, Inc. --><path d="M273.8 0l-1.7 14.1-32 264-.1 1 0 1 0 184 0 16 16 0 128 0 16 0 0-16 0-184 0-1-.1-1-32-264L366.2 0 352 0 288 0 273.8 0zm28.4 32l35.6 0L368 281l0 167-96 0 0-167L302.2 32zM64 96l0-16L32 80l0 16 0 32-16 0L0 128l0 32 16 0 16 0 0 288 0 16 32 0 0-16 0-19.3 64 26.7 0 8.7 0 16 16 0 48 0 0 16 0 16 32 0 0-16 0-32 0-16-16 0-48 0 0-160 48 0 16 0 0-32-16 0-64 0-16 0 0 16 0 48-64 0 0-160 16 0 16 0 0-32-16 0-16 0 0-32zm0 298l0-42 64 0 0 68.7L64 394zM608 96l0-16-32 0 0 16 0 32-16 0-16 0 0 32 16 0 16 0 0 160-64 0 0-48 0-16-16 0-64 0-16 0 0 32 16 0 48 0 0 160-48 0-16 0 0 16 0 32 0 16 32 0 0-16 0-16 48 0 16 0 0-16 0-8.7 64-26.7 0 19.3 0 16 32 0 0-16 0-288 16 0 16 0 0-32-16 0-16 0 0-32zM512 352l64 0 0 42-64 26.7 0-68.7zM320 224c-8.8 0-16 7.2-16 16l0 80 32 0 0-80c0-8.8-7.2-16-16-16z"/></svg>
